packages/foundations/icons/Health/Pill.svg

<svg width="24" height="24" viewBox="0 0 24 24" fill="none" xmlns="http://www.w3.org/2000/svg">
<path fill-rule="evenodd" clip-rule="evenodd" d="M19.6996 4.14335C18.7452 3.18893 17.4923 2.71143 16.2426 2.71143C14.993 2.71143 13.7401 3.18893 12.7857 4.14335L4.14326 12.7858C3.18884 13.7402 2.71133 14.9931 2.71133 16.2427C2.71133 17.4924 3.18884 18.7453 4.14326 19.6997C5.09768 20.6541 6.3506 21.1316 7.60022 21.1316C8.84985 21.1316 10.1028 20.6541 11.0572 19.6997L19.6996 11.0573C20.654 10.1029 21.1315 8.84994 21.1315 7.60031C21.1315 6.35069 20.654 5.09777 19.6996 4.14335ZM16.2426 4.71143C16.9835 4.71143 17.7211 4.99328 18.2854 5.55756C18.8497 6.12185 19.1315 6.85944 19.1315 7.60031C19.1315 8.34119 18.8497 9.07878 18.2854 9.64307L14.6713 13.2572L10.5858 9.17165L14.1999 5.55756C14.7642 4.99328 15.5018 4.71143 16.2426 4.71143ZM9.17158 10.5859L5.55747 14.2C4.99318 14.7643 4.71133 15.5019 4.71133 16.2427C4.71133 16.9836 4.99318 17.7212 5.55747 18.2855C6.12176 18.8498 6.85934 19.1316 7.60022 19.1316C8.3411 19.1316 9.07869 18.8498 9.64298 18.2855L13.2571 14.6714L9.17158 10.5859Z" fill="#3D474D"/>
</svg>

<svg xmlns="http://www.w3.org/2000/svg" fill="none" viewBox="0 0 24 24" width="100%" height="100%">
  <path fill="#3D474D" fill-rule="evenodd" d="M19.7 4.143a4.877 4.877 0 0 0-3.457-1.432c-1.25 0-2.503.478-3.457 1.432l-8.643 8.643a4.877 4.877 0 0 0-1.432 3.457c0 1.25.478 2.502 1.432 3.457A4.877 4.877 0 0 0 7.6 21.132c1.25 0 2.503-.478 3.457-1.432l8.643-8.643A4.877 4.877 0 0 0 21.13 7.6c0-1.25-.477-2.502-1.431-3.457Zm-3.457.568c.74 0 1.478.282 2.042.847.565.564.846 1.301.846 2.042 0 .741-.281 1.479-.846 2.043l-3.614 3.614-4.085-4.085L14.2 5.558a2.877 2.877 0 0 1 2.043-.847Zm-7.071 5.875L5.557 14.2a2.877 2.877 0 0 0-.846 2.043c0 .74.282 1.478.846 2.043a2.877 2.877 0 0 0 2.043.846c.741 0 1.479-.282 2.043-.847l3.614-3.614-4.085-4.085Z" clip-rule="evenodd"/>
</svg>
